X: 130876
T: Maid of Holyhead
S: "First Collection of Traditional Irish Music" (M.Mulvihill)
Z: B.Black
L: 1/8
M: 4/4
R: reel
K: D
dB|A3 A B2 dB|ADFA BEEB|A2 FA BdAd|BdAG FD D2|
ADFA BdcB|A2 FA BEEF|G3 A Bdeg|fdec dBAB||
d2 fd edBd|egfe dBAB|d2 fd egfe|dBAG FD D2|
d2 fd edBd|egfe dBAB|defg a3 g|f2 eg fd d2||
